img/dn-grey.svg

<svg width="22" height="21" viewBox="0 0 22 21" fill="none" xmlns="http://www.w3.org/2000/svg">
<g id="dzen">
<path id="Vector" d="M12.4295 20.9969H10.6423C10.6691 20.3115 10.6928 19.626 10.7247 18.9405C10.7476 18.4363 10.7674 17.9308 10.8134 17.4278C10.8619 16.8936 10.9283 16.36 11.0087 15.829C11.0876 15.2896 11.23 14.7615 11.4331 14.2557C12.0012 12.8553 12.9962 11.8896 14.4081 11.3567C15.2327 11.0452 16.0969 10.9157 16.9687 10.8289C17.3357 10.7918 17.7034 10.765 18.071 10.7421C18.5727 10.7114 19.0746 10.6857 19.5767 10.6648C19.9864 10.647 20.3962 10.6387 20.806 10.6253C20.8762 10.6253 20.9464 10.617 21.0249 10.6125V10.7184C21.0204 11.4237 21.0198 12.1296 21.0108 12.8349C20.9949 14.0597 20.9553 15.2833 20.7619 16.496C20.6725 17.1291 20.5022 17.7482 20.2551 18.338C19.9883 18.9475 19.6169 19.4747 19.0552 19.8526C18.6283 20.1341 18.1605 20.3481 17.6683 20.487C16.8539 20.7276 16.0177 20.8399 15.174 20.891C14.4023 20.9382 13.6281 20.9548 12.8552 20.9816L12.4295 20.9969Z" fill="#707070"/>
<path id="Vector_2" d="M0.0263672 10.3833V8.59619C0.030835 8.48194 0.0384942 8.36769 0.0404089 8.25281C0.0570036 7.03373 0.0921078 5.8153 0.274011 4.60708C0.361425 3.9793 0.52054 3.36361 0.748237 2.77209C1.11587 1.84533 1.74264 1.17644 2.66301 0.774337C3.30765 0.49478 3.98293 0.33713 4.67352 0.233732C5.48261 0.117549 6.29822 0.0525303 7.1155 0.0390638C8.18713 0.0160865 9.25877 0.0135333 10.3304 0.00204468H10.4083C10.4083 0.0511906 10.4083 0.0862948 10.4083 0.122037C10.3821 0.780081 10.3579 1.43813 10.3291 2.09617C10.31 2.5187 10.2953 2.9425 10.2576 3.36375C10.211 3.89031 10.1511 4.41624 10.0821 4.94089C10.0108 5.49439 9.87916 6.03844 9.68959 6.56334C9.31111 7.59859 8.68625 8.44492 7.7678 9.06659C7.13273 9.49613 6.42746 9.75591 5.6858 9.92122C5.03033 10.064 4.36512 10.1576 3.69571 10.2014C3.10469 10.2435 2.51302 10.2837 1.92136 10.3125C1.2882 10.3437 0.656966 10.3603 0.0263672 10.3833Z" fill="#707070"/>
<path id="Vector_3" d="M0.0263672 12.4008V10.6137C0.460383 10.6303 0.895037 10.645 1.32905 10.6635C1.79562 10.6833 2.26282 10.696 2.72875 10.7273C3.36276 10.7728 3.99591 10.828 4.62821 10.8926C5.17846 10.9503 5.72196 11.0604 6.2513 11.2213C7.32868 11.5475 8.23947 12.1213 8.93198 13.0244C9.47514 13.7373 9.78533 14.5511 9.97043 15.4192C10.1032 16.0543 10.1913 16.698 10.234 17.3454C10.2755 17.9364 10.3157 18.5275 10.3444 19.1198C10.3751 19.7446 10.3917 20.3701 10.4147 20.9956H8.62753C8.54073 20.9911 8.45329 20.9841 8.36649 20.9829C7.07146 20.9663 5.77707 20.9369 4.49417 20.732C3.86421 20.6312 3.24702 20.4812 2.66301 20.2182C2.15815 19.9948 1.71137 19.7019 1.35905 19.273C0.945459 18.7662 0.6959 18.1783 0.521017 17.556C0.243375 16.5693 0.145722 15.5532 0.0965757 14.5377C0.0633863 13.858 0.055727 13.1776 0.0365793 12.4953C0.035941 12.4653 0.0295585 12.4327 0.0263672 12.4008Z" fill="#707070"/>
<path id="Vector_4" d="M10.6474 0.00141835C11.0105 0.00141835 11.3629 -0.00177294 11.7152 0.00141835C12.4447 0.00971571 13.1749 0.0148217 13.9044 0.035246C14.8363 0.0614145 15.7656 0.120134 16.6859 0.280337C17.3148 0.380416 17.9275 0.563492 18.5082 0.824771C19.3756 1.22879 19.957 1.89194 20.3074 2.77337C20.5353 3.3648 20.6942 3.98053 20.781 4.60837C20.9584 5.78404 20.9974 6.96992 21.0127 8.15517C21.0216 8.86044 21.0223 9.56572 21.0267 10.271V10.3738C21.0056 10.377 20.9843 10.3789 20.9629 10.3795C20.3217 10.354 19.6802 10.328 19.0386 10.3016C18.6779 10.2863 18.318 10.2723 17.958 10.2474C17.598 10.2225 17.2463 10.1867 16.8902 10.1542C16.3342 10.1045 15.7824 10.0156 15.239 9.88804C14.1674 9.63273 13.2132 9.16489 12.4517 8.35111C11.8658 7.72562 11.4784 6.98779 11.239 6.16827C11.0898 5.65884 10.9856 5.1373 10.9276 4.60964C10.8689 4.07542 10.8165 3.54056 10.7795 3.00506C10.7399 2.43063 10.7208 1.8562 10.6959 1.28623C10.678 0.893703 10.6646 0.499898 10.6499 0.106731C10.6435 0.0754564 10.6474 0.0435434 10.6474 0.00141835Z" fill="#707070"/>
</g>
</svg>

<svg width="22" height="21" fill="none" xmlns="http://www.w3.org/2000/svg"><path d="M12.43 20.997h-1.788c.027-.686.05-1.371.083-2.056.023-.505.042-1.01.088-1.513.049-.534.115-1.068.196-1.599.079-.54.221-1.068.424-1.573.568-1.4 1.563-2.366 2.975-2.9.825-.31 1.689-.44 2.56-.527a29.24 29.24 0 011.103-.087c.502-.03 1.004-.056 1.506-.077.41-.018.82-.026 1.229-.04.07 0 .14-.008.219-.012v.105c-.005.706-.005 1.412-.014 2.117-.016 1.225-.056 2.448-.25 3.661a7.47 7.47 0 01-.506 1.842c-.267.61-.638 1.137-1.2 1.515a4.973 4.973 0 01-1.387.634c-.814.24-1.65.353-2.494.404-.772.047-1.546.064-2.319.09l-.425.016zM.026 10.383V8.596c.005-.114.012-.228.014-.343.017-1.22.052-2.438.234-3.646a8.29 8.29 0 01.474-1.835c.368-.927.995-1.596 1.915-1.998.645-.28 1.32-.437 2.01-.54.81-.116 1.625-.181 2.442-.195C8.188.016 9.26.014 10.33.002h.078v.12c-.026.658-.05 1.316-.079 1.974-.019.423-.034.846-.071 1.268a37.354 37.354 0 01-.176 1.577 7.656 7.656 0 01-.392 1.622C9.31 7.6 8.686 8.445 7.768 9.067c-.635.43-1.34.689-2.082.854a13.35 13.35 0 01-1.99.28c-.591.042-1.183.083-1.775.111-.633.032-1.264.048-1.895.071zm0 2.017v-1.786c.434.016.869.031 1.303.05.467.02.934.032 1.4.063a63.77 63.77 0 011.9.166c.55.057 1.093.167 1.622.328 1.078.326 1.988.9 2.681 1.803.543.713.853 1.527 1.038 2.395.133.635.221 1.279.264 1.926.041.591.082 1.183.11 1.775.031.625.048 1.25.07 1.876H8.629c-.087-.005-.175-.012-.262-.013-1.295-.017-2.589-.046-3.872-.251-.63-.1-1.247-.25-1.831-.514-.505-.223-.952-.516-1.304-.945-.414-.507-.663-1.095-.838-1.717-.278-.987-.375-2.003-.424-3.018-.034-.68-.041-1.36-.06-2.043-.001-.03-.007-.062-.01-.094zM10.647.001c.364 0 .716-.003 1.068 0 .73.009 1.46.014 2.19.034.931.026 1.86.085 2.78.245.63.1 1.242.283 1.823.545.868.404 1.449 1.067 1.8 1.948.227.592.386 1.208.473 1.835.177 1.176.216 2.362.232 3.547.009.705.01 1.41.014 2.116v.103a.523.523 0 01-.064.005l-1.924-.077c-.361-.016-.721-.03-1.081-.055-.36-.024-.712-.06-1.068-.093a11.837 11.837 0 01-1.651-.266c-1.072-.255-2.026-.723-2.787-1.537-.586-.625-.974-1.363-1.213-2.183a9.072 9.072 0 01-.311-1.558 39.843 39.843 0 01-.149-1.605c-.04-.574-.058-1.149-.083-1.719-.018-.392-.031-.786-.046-1.18-.007-.03-.003-.062-.003-.105z" fill="#707070"/></svg>
